newicons/recargapay.svg

<?xml version="1.0" encoding="UTF-8"?><svg id="a" xmlns="http://www.w3.org/2000/svg" viewBox="0 0 48 48"><defs><style>.b{fill:none;stroke:#fff;stroke-linecap:round;stroke-linejoin:round;}</style></defs><path class="b" d="M21.878,34.608l.425-2.121M25.697,15.513l.425-2.121M17.295,30.627c.788,1.355,2.015,1.86,3.863,1.86h2.557c2.38,0,4.69-1.9,5.158-4.244h0c.469-2.343-1.08-4.243-3.46-4.243h-2.826c-2.38,0-3.929-1.9-3.46-4.243h0c.469-2.344,2.778-4.244,5.158-4.244h2.557c1.848,0,3.075.505,3.863,1.86M16.763,39.483l-4.028,4.017h13.508c2.737,0,6.45-.2,7.265-4.171l5.795-28.217M31.237,8.517l4.028-4.017h-13.508c-2.737,0-6.45.2-7.265,4.171l-5.795,28.217"/></svg>

<svg xmlns="http://www.w3.org/2000/svg" xml:space="preserve" viewBox="0 0 48 48"><path d="m21.878 34.608.425-2.121m3.394-16.974.425-2.121m-8.827 17.235c.788 1.355 2.015 1.86 3.863 1.86h2.557c2.38 0 4.69-1.9 5.158-4.244v0C29.342 25.9 27.793 24 25.413 24h-2.826c-2.38 0-3.929-1.9-3.46-4.243v0c.469-2.344 2.778-4.244 5.158-4.244h2.557c1.848 0 3.075.505 3.863 1.86m-13.942 22.11L12.735 43.5h13.508c2.737 0 6.45-.2 7.265-4.171l5.795-28.217m-8.066-2.595L35.265 4.5H21.757c-2.737 0-6.45.2-7.265 4.171L8.697 36.888" class="t" style="fill:none;stroke:#fff;stroke-width:1;stroke-linecap:round;stroke-linejoin:round;stroke-opacity:1"/></svg>
